X:33
T:Cassano,The. JC.032
R:Quadrille
S:John Clare,Poet,Helpston. (1793-1864)
O:England
A:Northamptonshire
Z:vmp.P. Headford
M:6/8
L:1/8
Q:3/8=120
K:G
“_Key D in MS”\
B2A B2A|G2G GAB|c2B c2B|A2A A2B|!
c2c cde|edB Bcd|dcB A2B|G2G G3:|!
|:d2d dBG|e2e e3|c2c cAF|d2d d3|!
G2D B2G|dB2 fd2|edc BAG|A2D D3|!
B2A B2A|G2G GAB|c2B c2B|A2A A2B|!
c2c cde|edc Bcd|dcB A2B|G2G G3:|

